public/svg/linkedin-blue.svg

<svg width="45" height="45" viewBox="0 0 45 45" fill="none" xmlns="http://www.w3.org/2000/svg">
<circle cx="22.5" cy="22.5" r="22.5" fill="#21558A"/>
<path d="M32.3333 11C33.0406 11 33.7189 11.281 34.219 11.781C34.719 12.2811 35 12.9594 35 13.6667V32.3333C35 33.0406 34.719 33.7189 34.219 34.219C33.7189 34.719 33.0406 35 32.3333 35H13.6667C12.9594 35 12.2811 34.719 11.781 34.219C11.281 33.7189 11 33.0406 11 32.3333V13.6667C11 12.9594 11.281 12.2811 11.781 11.781C12.2811 11.281 12.9594 11 13.6667 11H32.3333ZM31.6667 31.6667V24.6C31.6667 23.4472 31.2087 22.3416 30.3936 21.5264C29.5784 20.7113 28.4728 20.2533 27.32 20.2533C26.1867 20.2533 24.8667 20.9467 24.2267 21.9867V20.5067H20.5067V31.6667H24.2267V25.0933C24.2267 24.0667 25.0533 23.2267 26.08 23.2267C26.5751 23.2267 27.0499 23.4233 27.3999 23.7734C27.75 24.1235 27.9467 24.5983 27.9467 25.0933V31.6667H31.6667ZM16.1733 18.4133C16.7674 18.4133 17.3372 18.1773 17.7573 17.7573C18.1773 17.3372 18.4133 16.7674 18.4133 16.1733C18.4133 14.9333 17.4133 13.92 16.1733 13.92C15.5757 13.92 15.0026 14.1574 14.58 14.58C14.1574 15.0026 13.92 15.5757 13.92 16.1733C13.92 17.4133 14.9333 18.4133 16.1733 18.4133ZM18.0267 31.6667V20.5067H14.3333V31.6667H18.0267Z" fill="white"/>
</svg>

<svg xmlns="http://www.w3.org/2000/svg" width="45" height="45" fill="none"><circle cx="22.5" cy="22.5" r="22.5" fill="#21558A"/><path fill="#fff" d="M32.333 11A2.667 2.667 0 0 1 35 13.667v18.666A2.667 2.667 0 0 1 32.333 35H13.667A2.667 2.667 0 0 1 11 32.333V13.667A2.667 2.667 0 0 1 13.667 11zm-.666 20.667V24.6a4.347 4.347 0 0 0-4.347-4.347c-1.133 0-2.453.694-3.093 1.734v-1.48h-3.72v11.16h3.72v-6.574a1.86 1.86 0 0 1 1.853-1.866 1.866 1.866 0 0 1 1.867 1.866v6.574zM16.173 18.413a2.24 2.24 0 0 0 2.24-2.24c0-1.24-1-2.253-2.24-2.253a2.253 2.253 0 0 0-2.253 2.253c0 1.24 1.013 2.24 2.253 2.24m1.854 13.254v-11.16h-3.694v11.16z"/></svg>
